fs/briefcase_12_regular.svg

<svg viewBox="0 0 12 12" fill="none" xmlns="http://www.w3.org/2000/svg" height="1em" width="1em">
  <path d="M4 3C4 2.44772 4.44772 2 5 2H7C7.55228 2 8 2.44772 8 3V4H8.5C9.32843 4 10 4.67157 10 5.5V8.5C10 9.32843 9.32843 10 8.5 10H3.5C2.67157 10 2 9.32843 2 8.5V5.5C2 4.67157 2.67157 4 3.5 4H4V3ZM7 3H5V4H7V3ZM3.5 5C3.22386 5 3 5.22386 3 5.5V8.5C3 8.77614 3.22386 9 3.5 9H8.5C8.77614 9 9 8.77614 9 8.5V5.5C9 5.22386 8.77614 5 8.5 5H3.5Z" fill="#212121"/>
</svg>

<svg viewBox="0 0 12 12" fill="none" xmlns="http://www.w3.org/2000/svg" height="1em" width="1em">
  <path d="M4 3a1 1 0 0 1 1-1h2a1 1 0 0 1 1 1v1h.5A1.5 1.5 0 0 1 10 5.5v3A1.5 1.5 0 0 1 8.5 10h-5A1.5 1.5 0 0 1 2 8.5v-3A1.5 1.5 0 0 1 3.5 4H4V3Zm3 0H5v1h2V3ZM3.5 5a.5.5 0 0 0-.5.5v3a.5.5 0 0 0 .5.5h5a.5.5 0 0 0 .5-.5v-3a.5.5 0 0 0-.5-.5h-5Z" fill="#212121"/>
</svg>
